X: 122
T: REEL: Dick Gossip's
C: C: Trad.; S: Various
C: Set Leaders: Tania, Anton
Z: Anton Zille ed., Oleg Naumov arr.; Will Harmon at The Session
N: https://thesession.org/members/26966/sets/92420
R: Reel
M: 4/4
L: 1/8
Q: 1/2=100
K: Dmaj
|:"D"F2 AF GFED|"D"DFAF GFED|"G"~E3 F GFED|"A"EDEF GFED|
"D"F2 AF "D/F#"GFED|"Bm"DFAF GFED|"G"B/c/d ef "A"gece|1 "D"dfec "A"d2 DE:|2 "D"df"A"ec "D"d2 ef||
|:"G"gB B/B/B gBaB|"Em"gB B/B/B gfed|"A"c/B/A eA fAeA|"A"B/c/d ef gfef|
"G"gB B/B/B gBaB|"Em"gB B/B/B gfed|"A"cdef gece|1 "A"dfec "D"d2 ef:|2 "D"df"A"ec "D"d2 AG||

